; generated by PrusaSlicer 2.9.3 on 2025-10-07 at 00:31:01 UTC


;
;
; 

; external perimeters extrusion width = 0.45mm
; perimeters extrusion width = 0.45mm
; infill extrusion width = 0.45mm
; solid infill extrusion width = 0.45mm
; top infill extrusion width = 0.40mm
; first layer extrusion width = 0.42mm

M73 P0 R35
M73 Q0 S35
M201 X1000 Y1000 Z200 E5000 ; sets maximum accelerations, mm/sec^2
M203 X200 Y200 Z12 E120 ; sets maximum feedrates, mm / sec
M204 S1250 T1250 ; sets acceleration (S) and retract acceleration (R), mm/sec^2
M205 X8.00 Y8.00 Z0.40 E4.50 ; sets the jerk limits, mm/sec
M205 S0 T0 ; sets the minimum extruding and travel feed rate, mm/sec

; printing object Body2.stl id:0 copy 0
; stop printing object Body2.stl id:0 copy 0

;TYPE:Custom
M862.3 P "MK3S" ; printer model check
M862.1 P0.4 ; nozzle diameter check
M115 U3.14.1 ; tell printer latest fw version
G90 ; use absolute coordinates
M83 ; extruder relative mode
M104 S215 ; set extruder temp
M140 S60 ; set bed temp
M190 S60 ; wait for bed temp
M109 S215 ; wait for extruder temp
G28 W ; home all without mesh bed level
G80 X117.539 Y97.5416 W14.9216 H14.9169 ; mesh bed levelling

G1 Z0.2 F720
G1 Y-3 F1000 ; go outside print area
G92 E0
G1 X60 E9 F1000 ; intro line
G1 X100 E12.5 F1000 ; intro line

G92 E0
M221 S95

; Don't change E values below. Excessive value can damage the printer.
M907 E430 ; set extruder motor current
G21 ; set units to millimeters
G90 ; use absolute coordinates
M83 ; use relative distances for extrusion

M900 K0.05 ; Filament gcode LA 1.5
M900 K30 ; Filament gcode LA 1.0




M107
;LAYER_CHANGE
;Z:0.2
;HEIGHT:0.2
G1 E-.8 F2100
G1 Z.6 F720
G1 X119.019 Y100.861 F10800
G1 Z.2 F720
G1 E.8 F2100
M204 S800
;TYPE:Skirt/Brim
;WIDTH:0.42
G1 F1057
G1 X120.035 Y99.682 E.0488
G1 X121.177 Y98.813 E.04499
G1 X122.287 Y98.252 E.039
G1 X123.8 Y97.825 E.04929
G1 X125.355 Y97.734 E.04884
G1 X126.892 Y97.978 E.0488
G1 X128.028 Y98.387 E.03786
G1 X129.367 Y99.181 E.04881
G1 X130.458 Y100.193 E.04666
G1 X131.178 Y101.162 E.03785
G1 X131.831 Y102.498 E.04663
G1 X132.206 Y104.009 E.04881
G1 X132.269 Y105.214 E.03783
G1 X132.077 Y106.689 E.04664
G1 X131.596 Y108.063 E.04564
G1 X130.981 Y109.139 E.03886
G1 X129.965 Y110.318 E.0488
G1 X128.659 Y111.288 E.05101
G1 X127.302 Y111.898 E.04665
G1 X126.13 Y112.186 E.03784
G1 X124.575 Y112.263 E.04882
G1 X123.04 Y112.005 E.0488
G1 X121.909 Y111.583 E.03785
G1 X120.633 Y110.819 E.04663
G1 X119.542 Y109.807 E.04666
G1 X118.822 Y108.838 E.03785
G1 X118.169 Y107.502 E.04663
G1 X117.794 Y105.991 E.04881
G1 X117.731 Y104.786 E.03783
G1 X117.923 Y103.311 E.04664
G1 X118.404 Y101.937 E.04564
G1 X118.989 Y100.914 E.03695
M204 S1000
G1 X119.313 Y101.102 F10800
M204 S800
G1 F1057
G1 X119.322 Y101.086 E.00058
G1 X120.288 Y99.961 E.04649
G1 X121.384 Y99.128 E.04316
G1 X122.416 Y98.606 E.03626
G1 X123.856 Y98.198 E.04693
G1 X125.336 Y98.11 E.04649
G1 X126.801 Y98.344 E.04652
G1 X127.867 Y98.728 E.03553
G1 X129.143 Y99.484 E.0465
G1 X130.179 Y100.446 E.04433
G1 X130.854 Y101.355 E.0355
G1 X131.476 Y102.625 E.04434
G1 X131.833 Y104.064 E.04649
G1 X131.891 Y105.219 E.03626
G1 X131.711 Y106.597 E.04357
G1 X131.213 Y107.995 E.04653
G1 X130.678 Y108.914 E.03334
G1 X129.712 Y110.039 E.04649
G1 X128.465 Y110.965 E.0487
G1 X127.189 Y111.538 E.04386
G1 X126.075 Y111.813 E.03598
G1 X124.594 Y111.886 E.04649
G1 X123.131 Y111.639 E.04652
G1 X122.079 Y111.246 E.03521
G1 X120.857 Y110.516 E.04463
G1 X119.821 Y109.554 E.04433
G1 X119.146 Y108.645 E.0355
G1 X118.524 Y107.375 E.04434
G1 X118.167 Y105.936 E.04649
G1 X118.109 Y104.781 E.03626
G1 X118.289 Y103.403 E.04357
G1 X118.787 Y102.005 E.04653
G1 X119.282 Y101.154 E.03087
M204 S1000
G1 X119.608 Y101.34 F10800
M204 S800
G1 F1057
G1 X119.625 Y101.311 E.00105
G1 X120.542 Y100.241 E.04418
G1 X121.591 Y99.443 E.04133
G1 X122.545 Y98.96 E.03353
G1 X123.911 Y98.571 E.04453
G1 X125.318 Y98.487 E.04419
G1 X126.682 Y98.703 E.0433
G1 X127.706 Y99.068 E.03409
G1 X128.918 Y99.787 E.04419
G1 X129.899 Y100.699 E.042
G1 X130.531 Y101.549 E.03321
G1 X131.121 Y102.752 E.04201
G1 X131.46 Y104.12 E.04419
G1 X131.515 Y105.197 E.03381
G1 X131.345 Y106.506 E.04139
G1 X130.903 Y107.765 E.04184
G1 X130.375 Y108.689 E.03337
G1 X129.458 Y109.759 E.04418
G1 X128.271 Y110.641 E.04637
G1 X127.06 Y111.184 E.04161
G1 X126.02 Y111.44 E.03358
G1 X124.612 Y111.51 E.0442
G1 X123.223 Y111.274 E.04418
G1 X122.248 Y110.909 E.03264
G1 X121.082 Y110.213 E.04258
G1 X120.101 Y109.301 E.042
G1 X119.469 Y108.451 E.03321
G1 X118.879 Y107.248 E.04201
G1 X118.54 Y105.88 E.04419
G1 X118.485 Y104.803 E.03381
G1 X118.655 Y103.494 E.04139
G1 X119.097 Y102.235 E.04184
G1 X119.578 Y101.392 E.03043
M204 S1000
;WIPE_START
G1 F8640
G1 X119.608 Y101.34 E-.01386
G1 X119.625 Y101.311 E-.00776
G1 X120.542 Y100.241 E-.32538
G1 X121.591 Y99.443 E-.30434
G1 X122.165 Y99.152 E-.14866
;WIPE_END
G1 Z.6 F720
; printing object Body2.stl id:0 copy 0
G1 X126.671 Y107.357 F10800
G1 Z.2 F720
G1 E.8 F2100
M204 S800
;TYPE:External perimeter
;WIDTH:0.419999
G1 F1057
G1 X126.467 Y107.513 E.00805
G1 X126.05 Y107.714 E.01451
G1 X125.513 Y107.858 E.01743
G1 X125.19 Y107.903 E.01023
G1 X124.768 Y107.901 E.01323
G1 X124.17 Y107.782 E.01912
G1 X123.557 Y107.527 E.02082
G1 X123.193 Y107.279 E.01381
G1 X122.867 Y106.981 E.01385
G1 X122.581 Y106.616 E.01454
G1 X122.372 Y106.25 E.01321
G1 X122.176 Y105.672 E.01914
G1 X122.09 Y105.014 E.02081
G1 X122.125 Y104.552 E.01453
G1 X122.268 Y104.015 E.01742
G1 X122.587 Y103.374 E.02245
G1 X123.006 Y102.89 E.02007
G1 X123.533 Y102.487 E.0208
G1 X123.95 Y102.286 E.01451
G1 X124.487 Y102.142 E.01743
G1 X124.81 Y102.097 E.01023
G1 X125.232 Y102.099 E.01323
G1 X125.845 Y102.223 E.01961
G1 X126.443 Y102.473 E.02032
G1 X126.825 Y102.734 E.01451
G1 X127.219 Y103.126 E.01743
G1 X127.611 Y103.716 E.02221
G1 X127.824 Y104.328 E.02032
G1 X127.909 Y104.965 E.02015
G1 X127.876 Y105.448 E.01518
G1 X127.732 Y105.985 E.01743
G1 X127.616 Y106.275 E.00979
G1 X127.396 Y106.651 E.01366
G1 X126.994 Y107.11 E.01913
G1 X126.718 Y107.321 E.01089
M204 S1000
G1 X126.913 Y107.645 F10800
M204 S800
;TYPE:Perimeter
;WIDTH:0.393254
G1 F1057
G1 X126.637 Y107.836 E.00978
G1 X126.157 Y108.06 E.01543
;WIDTH:0.399848
G1 X125.568 Y108.221 E.01812
G1 X124.81 Y108.268 E.02254
;WIDTH:0.395334
G1 X124.312 Y108.198 E.01474
;WIDTH:0.389716
G1 X123.817 Y108.051 E.01489
;WIDTH:0.39326
G1 X123.363 Y107.836 E.01463
G1 X122.948 Y107.547 E.01473
;WIDTH:0.39985
G1 X122.494 Y107.103 E.01885
G1 X122.075 Y106.469 E.02255
;WIDTH:0.395336
G1 X121.886 Y106.003 E.01474
;WIDTH:0.389716
G1 X121.767 Y105.501 E.01488
;WIDTH:0.392402
G1 X121.728 Y104.959 E.01579
;WIDTH:0.400752
G1 X121.818 Y104.246 E.02138
G1 X122.027 Y103.637 E.01916
;WIDTH:0.391072
G1 X122.281 Y103.2 E.01463
;WIDTH:0.389716
G1 X122.574 Y102.805 E.01418
G1 X122.949 Y102.451 E.01487
;WIDTH:0.3924
G1 X123.4 Y102.145 E.01584
;WIDTH:0.400752
G1 X124.062 Y101.867 E.02136
G1 X124.714 Y101.741 E.01976
;WIDTH:0.390376
G1 X125.203 Y101.735 E.01413
;WIDTH:0.390208
G1 X125.7 Y101.813 E.01453
;WIDTH:0.388564
G1 X126.183 Y101.949 E.01442
;WIDTH:0.393258
G1 X126.637 Y102.164 E.01463
G1 X127.071 Y102.468 E.01544
;WIDTH:0.399848
G1 X127.506 Y102.897 E.01813
G1 X127.925 Y103.531 E.02255
;WIDTH:0.395402
G1 X128.114 Y103.997 E.01474
;WIDTH:0.389714
G1 X128.233 Y104.499 E.01488
;WIDTH:0.395226
G1 X128.273 Y105 E.01472
G1 X128.242 Y105.443 E.01301
;WIDTH:0.39172
G1 X128.128 Y105.96 E.01535
;WIDTH:0.393284
G1 X127.931 Y106.457 E.01558
G1 X127.426 Y107.195 E.02605
;WIDTH:0.389716
G1 X127.051 Y107.549 E.01487
;WIDTH:0.393254
G1 X126.962 Y107.611 E.00316
M204 S1000
G1 X127.151 Y107.929 F10800
M204 S800
;TYPE:External perimeter
;WIDTH:0.419999
G1 F1057
G1 X126.764 Y108.179 E.01445
G1 X126.28 Y108.4 E.01668
G1 X125.771 Y108.55 E.01664
G1 X125.19 Y108.633 E.0184
G1 X124.672 Y108.619 E.01625
G1 X124.149 Y108.531 E.01663
G1 X123.579 Y108.348 E.01877
G1 X123.128 Y108.117 E.01589
G1 X122.715 Y107.825 E.01586
G1 X122.311 Y107.443 E.01743
G1 X121.949 Y106.981 E.0184
G1 X121.702 Y106.526 E.01623
G1 X121.516 Y106.028 E.01667
G1 X121.39 Y105.443 E.01876
G1 X121.365 Y104.938 E.01585
G1 X121.416 Y104.409 E.01666
G1 X121.54 Y103.893 E.01664
G1 X121.746 Y103.372 E.01757
G1 X122.033 Y102.936 E.01637
G1 X122.367 Y102.497 E.0173
G1 X122.811 Y102.095 E.01878
G1 X123.237 Y101.821 E.01588
G1 X123.694 Y101.61 E.01578
G1 X124.184 Y101.46 E.01607
G1 X124.691 Y101.379 E.0161
G1 X125.206 Y101.368 E.01615
G1 X125.828 Y101.477 E.0198
G1 X126.421 Y101.652 E.01939
G1 X126.872 Y101.883 E.01589
G1 X127.304 Y102.191 E.01664
G1 X127.689 Y102.557 E.01666
G1 X128.051 Y103.019 E.0184
G1 X128.298 Y103.474 E.01623
G1 X128.484 Y103.972 E.01667
G1 X128.599 Y104.49 E.01664
G1 X128.637 Y105.021 E.01669
G1 X128.584 Y105.591 E.01795
G1 X128.46 Y106.107 E.01664
G1 X128.254 Y106.628 E.01757
G1 X127.967 Y107.065 E.01639
G1 X127.633 Y107.503 E.01727
G1 X127.2 Y107.895 E.01831
M204 S1000
M106 S84.15
;LAYER_CHANGE
;Z:0.4
;HEIGHT:0.2
;BEFORE_LAYER_CHANGE
G92 E0.0
;0.4


;WIPE_START
G1 F8640
G1 X127.151 Y107.929 E-.01377
G1 X126.764 Y108.179 E-.10638
G1 X126.28 Y108.4 E-.12286
G1 X125.771 Y108.55 E-.12253
G1 X125.19 Y108.633 E-.13552
G1 X124.672 Y108.619 E-.11965
G1 X124.149 Y108.531 E-.12246
G1 X123.915 Y108.456 E-.05683
;WIPE_END
G1 Z.4 F720
;AFTER_LAYER_CHANGE
;0.4
M104 S210 ; set temperature
; stop printing object Body2.stl id:0 copy 0
G1 Z.8
G1 X129.344 Y110.779 F10800
G1 Z.4 F720
G1 E.8 F2100
;TYPE:Skirt/Brim
;WIDTH:0.42
G1 F1109
G1 X128.659 Y111.288 E.02676
G1 X127.302 Y111.898 E.04665
G1 X126.13 Y112.186 E.03784
G1 X124.575 Y112.263 E.04882
G1 X123.04 Y112.005 E.0488
G1 X121.909 Y111.583 E.03785
G1 X120.633 Y110.819 E.04663
G1 X119.542 Y109.807 E.04666
G1 X118.822 Y108.838 E.03785
G1 X118.169 Y107.502 E.04663
G1 X117.794 Y105.991 E.04881
G1 X117.731 Y104.786 E.03783
G1 X117.923 Y103.311 E.04664
G1 X118.404 Y101.937 E.04564
G1 X119.019 Y100.861 E.03886
G1 X120.035 Y99.682 E.0488
G1 X121.177 Y98.813 E.04499
G1 X122.287 Y98.252 E.039
G1 X123.8 Y97.825 E.04929
G1 X125.355 Y97.734 E.04884
G1 X126.892 Y97.978 E.0488
G1 X128.028 Y98.387 E.03786
G1 X129.367 Y99.181 E.04881
G1 X130.458 Y100.193 E.04666
G1 X131.178 Y101.162 E.03785
M73 Q1 S35
G1 X131.831 Y102.498 E.04663
G1 X132.206 Y104.009 E.04881
G1 X132.269 Y105.214 E.03783
G1 X132.077 Y106.689 E.04664
M73 P1 R35
G1 X131.596 Y108.063 E.04564
G1 X130.981 Y109.139 E.03886
G1 X129.965 Y110.318 E.0488
G1 X129.392 Y110.744 E.02239
G1 X129.168 Y110.442 F10800
G1 F1109
G1 X128.465 Y110.965 E.02747
G1 X127.189 Y111.538 E.04386
G1 X126.075 Y111.813 E.03598
G1 X124.594 Y111.886 E.04649
G1 X123.131 Y111.639 E.04652
G1 X122.079 Y111.246 E.03521
G1 X120.857 Y110.516 E.04463
G1 X119.821 Y109.554 E.04433
G1 X119.146 Y108.645 E.0355
G1 X118.524 Y107.375 E.04434
G1 X118.167 Y105.936 E.04649
G1 X118.109 Y104.781 E.03626
G1 X118.289 Y103.403 E.04357
G1 X118.787 Y102.005 E.04653
G1 X119.322 Y101.086 E.03334
G1 X120.288 Y99.961 E.04649
G1 X121.384 Y99.128 E.04316
G1 X122.416 Y98.606 E.03626
G1 X123.856 Y98.198 E.04693
G1 X125.336 Y98.11 E.04649
G1 X126.801 Y98.344 E.04652
G1 X127.867 Y98.728 E.03553
G1 X129.143 Y99.484 E.0465
G1 X130.179 Y100.446 E.04433
G1 X130.854 Y101.355 E.0355
G1 X131.476 Y102.625 E.04434
G1 X131.833 Y104.064 E.04649
G1 X131.891 Y105.219 E.03626
G1 X131.711 Y106.597 E.04357
G1 X131.213 Y107.995 E.04653
G1 X130.678 Y108.914 E.03334
G1 X129.712 Y110.039 E.04649
G1 X129.216 Y110.407 E.01936
G1 X128.992 Y110.105 F10800
G1 F1109
G1 X128.271 Y110.641 E.02817
G1 X127.06 Y111.184 E.04161
G1 X126.02 Y111.44 E.03358
G1 X124.612 Y111.51 E.0442
G1 X123.223 Y111.274 E.04418
G1 X122.248 Y110.909 E.03264
G1 X121.082 Y110.213 E.04258
G1 X120.101 Y109.301 E.042
G1 X119.469 Y108.451 E.03321
G1 X118.879 Y107.248 E.04201
G1 X118.54 Y105.88 E.04419
G1 X118.485 Y104.803 E.03381
G1 X118.655 Y103.494 E.04139
G1 X119.097 Y102.235 E.04184
G1 X119.625 Y101.311 E.03337
G1 X120.542 Y100.241 E.04418
G1 X121.591 Y99.443 E.04133
G1 X122.545 Y98.96 E.03353
G1 X123.911 Y98.571 E.04453
G1 X125.318 Y98.487 E.04419
G1 X126.682 Y98.703 E.0433
M73 P1 R34
G1 X127.706 Y99.068 E.03409
G1 X128.918 Y99.787 E.04419
G1 X129.899 Y100.699 E.042
G1 X130.531 Y101.549 E.03321
G1 X131.121 Y102.752 E.04201
G1 X131.46 Y104.12 E.04419
G1 X131.515 Y105.197 E.03381
G1 X131.345 Y106.506 E.04139
G1 X130.903 Y107.765 E.04184
G1 X130.375 Y108.689 E.03337
G1 X129.458 Y109.759 E.04418
G1 X129.04 Y110.07 E.01634
;WIPE_START
G1 F8640
G1 X128.992 Y110.105 E-.01372
G1 X128.271 Y110.641 E-.20744
G1 X127.06 Y111.184 E-.30645
G1 X126.02 Y111.44 E-.24731
G1 X125.912 Y111.445 E-.02508
;WIPE_END
G1 Z.8 F720
; printing object Body2.stl id:0 copy 0
G1 X122.006 Y105.924 F10800
G1 Z.4 F720
G1 E.8 F2100
M204 S800
;TYPE:Perimeter
;WIDTH:0.462592
G1 F1109
G1 X121.99 Y105.88 E.00163
;WIDTH:0.465784
G1 X121.886 Y105.369 E.01834
G1 X121.863 Y104.954 E.01461
;WIDTH:0.467053
G1 X121.949 Y104.284 E.02382
G1 X122.154 Y103.681 E.02246
;WIDTH:0.461947
G1 X122.422 Y103.211 E.01885
;WIDTH:0.46777
G1 X122.845 Y102.726 E.02273
G1 X123.392 Y102.307 E.02434
;WIDTH:0.462614
G1 X123.868 Y102.074 E.01849
;WIDTH:0.466555
G1 X124.446 Y101.915 E.02112
G1 X124.812 Y101.868 E.013
;WIDTH:0.463903
G1 X125.28 Y101.876 E.01638
;WIDTH:0.467829
G1 X125.899 Y101.999 E.0223
G1 X126.529 Y102.26 E.02409
;WIDTH:0.463104
G1 X126.969 Y102.557 E.01855
;WIDTH:0.466669
G1 X127.399 Y102.983 E.02133
G1 X127.798 Y103.581 E.02533
;WIDTH:0.46445
G1 X128 Y104.081 E.0189
;WIDTH:0.463157
G1 X128.109 Y104.578 E.01778
G1 X128.137 Y105.046 E.01638
;WIDTH:0.467052
G1 X128.051 Y105.717 E.02386
G1 X127.846 Y106.319 E.02243
;WIDTH:0.461946
G1 X127.578 Y106.789 E.01885
;WIDTH:0.467769
G1 X127.155 Y107.274 E.02273
G1 X126.608 Y107.693 E.02434
;WIDTH:0.462613
G1 X126.132 Y107.926 E.01849
;WIDTH:0.466553
G1 X125.554 Y108.085 E.02112
G1 X125.188 Y108.132 E.013
;WIDTH:0.463903
G1 X124.72 Y108.124 E.01638
;WIDTH:0.462376
G1 X124.279 Y108.052 E.01558
;WIDTH:0.46564
G1 X123.769 Y107.884 E.01887
G1 X123.392 Y107.693 E.01485
;WIDTH:0.467026
G1 X122.843 Y107.274 E.02435
G1 X122.434 Y106.805 E.02194
;WIDTH:0.462592
G1 X122.17 Y106.353 E.01827
G1 X122.027 Y105.98 E.01394
M204 S1000
G1 X122.414 Y105.798 F10800
M204 S800
;TYPE:External perimeter
;WIDTH:0.449999
G1 F1109
G1 X122.355 Y105.624 E.00622
G1 X122.276 Y105.015 E.02079
G1 X122.355 Y104.376 E.02179
G1 X122.539 Y103.832 E.01944
G1 X122.757 Y103.453 E.0148
G1 X123.13 Y103.029 E.01911
G1 X123.625 Y102.648 E.02114
G1 X124.225 Y102.395 E.02204
G1 X124.781 Y102.284 E.01919
G1 X125.219 Y102.284 E.01483
G1 X125.779 Y102.397 E.01934
G1 X126.349 Y102.633 E.02088
G1 X126.874 Y103.031 E.0223
G1 X127.243 Y103.453 E.01897
G1 X127.452 Y103.815 E.01415
G1 X127.645 Y104.376 E.02008
G1 X127.724 Y104.985 E.02079
G1 X127.645 Y105.624 E.02179
G1 X127.461 Y106.168 E.01944
G1 X127.243 Y106.547 E.0148
G1 X126.87 Y106.971 E.01911
G1 X126.375 Y107.352 E.02114
G1 X125.775 Y107.605 E.02204
G1 X125.219 Y107.716 E.01919
G1 X124.781 Y107.716 E.01483
G1 X124.398 Y107.656 E.01312
G1 X123.949 Y107.511 E.01597
G1 X123.625 Y107.352 E.01222
G1 X123.126 Y106.969 E.02129
G1 X122.757 Y106.547 E.01897
G1 X122.548 Y106.185 E.01415
G1 X122.434 Y105.854 E.01185
M204 S1000
;WIPE_START
G1 F8640
G1 X122.414 Y105.798 E-.01373
G1 X122.355 Y105.624 E-.04242
G1 X122.276 Y105.015 E-.1418
G1 X122.355 Y104.376 E-.14867
G1 X122.539 Y103.832 E-.1326
G1 X122.757 Y103.453 E-.10096
G1 X123.13 Y103.029 E-.13039
G1 X123.437 Y102.793 E-.08943
;WIPE_END
G1 Z.8 F720
G1 X127.118 Y107.844 F10800
G1 Z.4 F720
G1 E.8 F2100
M204 S800
;TYPE:Perimeter
;WIDTH:0.462561
G1 F1109
G1 X126.831 Y108.049 E.01231
;WIDTH:0.46333
G1 X126.352 Y108.29 E.01874
G1 X125.853 Y108.451 E.01833
;WIDTH:0.461982
G1 X125.31 Y108.543 E.01919
;WIDTH:0.463982
G1 X124.783 Y108.553 E.01845
G1 X124.285 Y108.483 E.01761
;WIDTH:0.463111
G1 X123.769 Y108.335 E.01876
G1 X123.275 Y108.111 E.01895
;WIDTH:0.463375
G1 X122.826 Y107.816 E.01878
G1 X122.437 Y107.464 E.01834
;WIDTH:0.461947
G1 X122.086 Y107.039 E.01921
;WIDTH:0.464546
G1 X121.817 Y106.592 E.01829
G1 X121.622 Y106.11 E.01823
;WIDTH:0.462568
